!!!Genre:	Dobridyen'
!!!Mode:	Minor
!!!Listening/dance:	listening
!!!One_Mode:	yes
!!!Orig_tonic: E
**kern
*I"P1
*clefG2
*k[b-e-]
*g:
*M3/4
*>A
=1
4g
4cc
8gL
8aJ
=2
(8qcc/
4.b-)
8g
8ccL
8aJ
=3
4b-
4cc
12b-L
12a
12gJ
=4
2g
4dd
=5
(8ddL
8ee-
8ff
8gg
8ff
8ee-J)
=6
8ddL
8ccJ
4ff
12ee-L
12dd
12ee-J
=7
4dd
4dd
4gg
=8
2g
4dd
=9
(8ddL
8ee-
8ff
8gg
8ff
8ee-J)
=10
4.dd
8b-
12ccL
12dd
12b-J
=11
[2.f
=12
2f]
4f
=13
4b-
4cc
8ffL
8ddJ
=14
8ccL
((8qdd/
8ccJ))
4b-
4a
=15
4g
4gg
8ddL
8b-J
=16
2.g
=17||
*>B
(8qg/
4gg)
4gg
4gg
=18
2gg
(16ffLL
16ee-
16dd
16ee-JJ)
=19
4dd
4dd
4gg
=20
2g
4dd
=21
(4.gg
8ff)
(8ffL
8ee-J)
=22
(4.ff
8ee-)
(8ee-L
8ddJ)
=23
4cc
4dd
(8qff/
8ee-L
8ccJ)
=24
2.dd
=25
8ddL
(8qff/
8ee-)
8ff
8ddJ
4cc
=26
8b-L
8cc
8dd
8b-J
4g
=27
2.f
=28
(8qeen/
2ff)
4ee-X
=29
8dd
(8qff/
8ee-)
8dd
8cc
8b-
8aJ
=30
4b-
4cc
4a-X
=31
4g
4gg
(8ddL
8b-J)
=32
2.g
==
*-
